X: 38873
T: Sunny Arvo
R: jig
M: 6/8
K: Aminor
|:EAc Bcd|edB A2G|A>BG ABd|edc deg|
age egd|edc B2c|ABc ded|1 BAA A2E:|2 BAA A2B||
cea daa|eaa daa|e>fe edc|edc B2d|
g^fe e2A|=fed dcB|ABc d>ed|BAA A2B|
cea daa|eaa f2a|efe edc|edc B2d|
g^fe e2A|=fed dcB|ABc d>ed|BAA A3||

